public/img/logo.svg

<svg width="140" height="23" viewBox="0 0 140 23" fill="none" xmlns="http://www.w3.org/2000/svg">
<path d="M17.5343 0.442383H0V5.27618H17.5343V0.442383ZM17.5343 9.0042H0V13.68H17.5343V9.0042ZM0 17.724V22.5578H17.5343V17.724H0Z" fill="white"/>
<path d="M44.6833 5.6553C43.6407 4.01244 42.1874 2.71711 40.3234 1.8009C38.4278 0.916284 36.2794 0.442383 33.8783 0.442383H23.4209V5.43414H33.6256C35.5212 5.43414 37.0377 5.97123 38.175 7.04541C39.3124 8.15118 39.9127 9.63607 39.9127 11.5001C39.9127 13.3957 39.3124 14.8806 38.175 15.9547C37.0377 17.0289 35.5212 17.566 33.6256 17.566H29.6764V11.6896H23.4209V22.5578H33.8783C36.2794 22.5578 38.4278 22.1155 40.3234 21.1993C42.1874 20.3146 43.6407 19.0193 44.6833 17.3449C45.6942 15.702 46.2313 13.7432 46.2313 11.5001C46.2313 9.28854 45.6942 7.32975 44.6833 5.6553Z" fill="white"/>
<path d="M54.2438 20.3146C56.0762 22.1155 58.6352 23.0001 61.921 23.0001C65.2067 23.0001 67.7341 22.1155 69.5666 20.3146C71.399 18.5454 72.3152 15.9863 72.3152 12.7006V0.442383H66.1545V12.5111C66.1545 16.0495 64.7644 17.8188 61.9842 17.8188C59.1723 17.8188 57.7822 16.0495 57.7822 12.5111V0.442383H51.5267V12.7006C51.5267 15.9863 52.4113 18.5454 54.2438 20.3146Z" fill="white"/>
<path d="M78.7161 0.442383V22.5578H84.9716V0.442383H78.7161Z" fill="white"/>
<path d="M96.4176 21.5467C98.25 22.5261 100.335 23 102.673 23C104.695 23 106.496 22.6525 108.139 21.9258C109.75 21.2308 111.109 20.1882 112.183 18.8297L108.202 15.228C106.749 16.9657 105.011 17.8187 102.989 17.8187C101.788 17.8187 100.714 17.5659 99.7665 17.0288C98.8187 16.5234 98.0921 15.7651 97.5866 14.8173C97.0811 13.8695 96.8283 12.7637 96.8283 11.5C96.8283 10.2679 97.0811 9.16209 97.5866 8.21429C98.0921 7.26648 98.8187 6.50824 99.7665 5.97115C100.714 5.46566 101.788 5.18132 102.989 5.18132C105.011 5.18132 106.749 6.06594 108.202 7.77198L112.183 4.17033C111.109 2.84341 109.75 1.80082 108.139 1.07418C106.496 0.379122 104.695 0 102.673 0C100.335 0 98.25 0.505496 96.4176 1.48489C94.5852 2.46429 93.1319 3.8228 92.0893 5.56044C91.0151 7.32967 90.5096 9.28846 90.5096 11.5C90.5096 13.7115 91.0151 15.7019 92.0893 17.4396C93.1319 19.2088 94.5852 20.5673 96.4176 21.5467Z" fill="white"/>
<path d="M123.358 0.442383H117.166V9.85722L123.358 3.12782V0.442383ZM129.771 10.2363L138.807 0.442383H131.92L123.358 9.63607L117.166 16.3023V22.5578H123.358V17.0289L125.696 14.533L132.015 22.5578H139.281L129.771 10.2363Z" fill="white"/>
<rect y="0.525391" width="5.25506" height="22.0712" fill="white"/>
</svg>

<svg fill="none" xmlns="http://www.w3.org/2000/svg" viewBox="0 0 140 23"><path d="M17.534.442H0v4.834h17.534V.442zm0 8.562H0v4.676h17.534V9.004zM0 17.724v4.834h17.534v-4.834H0zM44.683 5.655c-1.042-1.643-2.496-2.938-4.36-3.854C38.428.916 36.28.442 33.878.442H23.421v4.992h10.205c1.895 0 3.412.537 4.549 1.611 1.137 1.106 1.738 2.591 1.738 4.455 0 1.896-.6 3.38-1.738 4.455-1.137 1.074-2.654 1.611-4.55 1.611h-3.949V11.69h-6.255v10.868h10.457c2.401 0 4.55-.442 6.445-1.359 1.864-.884 3.318-2.18 4.36-3.854 1.011-1.643 1.548-3.602 1.548-5.845 0-2.211-.537-4.17-1.548-5.845zM54.244 20.315C56.076 22.115 58.635 23 61.92 23c3.286 0 5.813-.884 7.646-2.685 1.832-1.77 2.748-4.329 2.748-7.614V.442h-6.16v12.07c0 3.537-1.39 5.307-4.17 5.307-2.813 0-4.203-1.77-4.203-5.308V.442h-6.255v12.259c0 3.285.884 5.844 2.717 7.614zM78.716.442v22.116h6.256V.442h-6.256zM96.418 21.547c1.832.98 3.917 1.453 6.255 1.453 2.022 0 3.823-.348 5.466-1.074a10.293 10.293 0 004.044-3.096l-3.981-3.602c-1.453 1.738-3.191 2.59-5.213 2.59-1.201 0-2.275-.252-3.223-.79-.947-.505-1.674-1.263-2.18-2.21-.505-.948-.758-2.054-.758-3.318 0-1.232.253-2.338.759-3.286a5.518 5.518 0 012.18-2.243 6.754 6.754 0 013.222-.79c2.022 0 3.76.885 5.213 2.591l3.981-3.602a10.917 10.917 0 00-4.044-3.096C106.496.38 104.695 0 102.673 0c-2.338 0-4.423.505-6.255 1.485-1.833.98-3.286 2.338-4.329 4.075-1.074 1.77-1.58 3.728-1.58 5.94 0 2.211.506 4.202 1.58 5.94 1.043 1.769 2.496 3.127 4.329 4.107zM123.358.442h-6.192v9.415l6.192-6.73V.443zm6.413 9.794l9.036-9.794h-6.887l-8.562 9.194-6.192 6.666v6.256h6.192v-5.53l2.338-2.495 6.319 8.025h7.266l-9.51-12.322z" fill="#fff"/><path fill="#fff" d="M0 .525h5.255v22.071H0z"/></svg>
